!!!!SEGMENT: pl-wtm--r-998-1_krogulski-jozef-hymn-zalobny.krn
!!!id: 18xx:2102
!!!COM: Krogulski, Józef Władysław
!!!OTL: Hymn żałobny
!!!PDT: 1840
!!!SMS-siglum: PL-Wtm
!!!SMS-shelfmark: R 998/1
!!!NIFC-rismID: 1001083164
!!!URL-scan: http://repozytorium.nifc.pl/skany/pl-wtm-nut--r998
!!!ONB-nifc: UWAGA: na podstawie partytury z folderu pl-wtm-r998-1
!!!SMS-variant:
!!!SMS-altvar:
!!!OMD: Andante.
**kern	**kern	**kern	**kern	**text	**dynam
*part4	*part3	*part2	*part1	*part1	*part1
*staff4	*staff3	*staff2	*staff1	*staff1	*
*I"[Bass]	*I"[Bass]	*I"[Tenor]	*I"[Tenor]	*	*
*clefF4	*clefF4	*clefG2	*clefG2	*	*
*	*	*ITrd8c12	*ITrd8c12	*	*
*k[b-e-a-d-]	*k[b-e-a-d-]	*k[b-e-a-d-]	*k[b-e-a-d-]	*	*
*M4/4	*M4/4	*M4/4	*M4/4	*	*
*met(c)	*met(c)	*met(c)	*met(c)	*	*
!	!	!	!	!	!LO:DY:rj:b
4F\	4F\	4F/	4F/	De	p
=1	=1	=1	=1	=1	=1
*2\right	*2\right	*	*	*	*
2A-\	2A-\	2A-/	2A-/	ter-	.
4G\	4G\	4G/	4G/	.	.
4F\	4F\	4F/	4F/	-ra	.
=2	=2	=2	=2	=2	=2
*	*	*	*2\right	*	*
2F\	2F\	2A-/	2c\	for-	.
4F\	4F\	4A-/	4c\	-mas-	.
4F\	4F\	4A-/	4c\	-ti	.
=3	=3	=3	=3	=3	=3
*	*	*2\right	*	*	*
!	!LO:TX:t=P:problem:skreślone nuty w tt. nr 3-4	!	!	!	!
2BB-/	2F\	2B-\	2d-\	e-	.
*	*2\left	*	*	*	*
2BB-/	2F\	2B-\	2d-\	-am	.
=4	=4	=4	=4	=4	=4
4.FF/	4.F\	4.A-/	4.f\	Do-	.
8FF/	8F\	8A-/	8c\	-mi-	.
8FF/	8F\	8A-/	8c\	-ne	.
8r	8r	8r	8r	.	.
4C/	4F\	4A-/	4c\	et	.
=5	=5	=5	=5	=5	=5
4.D-\	4.F\	4.G/	4.B-\	car-	.
8D-\	8F\	8G/	8B-\	-ne	.
4C/	4F\	4A-/	4c\	in-	.
4BB-/	4F\	4B-/	4d-\	-du-	.
=6	=6	=6	=6	=6	=6
*	*2\right	*	*	*	*
2.AA-/	2.F\	2.c\	2.c\	-xi-	.
4AA-/	4F\	4c\	4f\	-sti	.
!!LO:LB:g=original
=7	=7	=7	=7	=7	=7
4D-\	2F\	4Bn\	2a-\	il-	.
4C/	.	4c\	.	.	.
2BB-/	4G\	2d-\	4g\	.	.
.	4A-\	.	4f\	.	.
=8	=8	=8	=8	=8	=8
2C/	2G\	2c\	2en\	-lam	.
!	!	!	!	!	!LO:DY:rj:b
2r	2r	2r	4c\	re-	ff
.	.	.	4c\	-su-	.
=9	=9	=9	=9	=9	=9
1r	4r	4r	2.d-\	-sci-	.
.	8B-\	8d-\	.	.	.
.	8A-\	8c\	.	.	.
.	4G\	4B-\	.	.	.
.	4F\	4A-/	4d-\	-ta	.
=10	=10	=10	=10	=10	=10
2r	4En\	4G/	4.d-\	e-	.
.	4E\	4B-/	.	.	.
.	.	.	8d-\	-am	.
4C/	4F\	4A-/	4c\	in	.
4C/	4G\	4G/	4B-\	no-	.
=11	=11	=11	=11	=11	=11
4.F\	4.A-\	4.F/	4.A-/	-vis-	.
8E-\	8G\	8G/	8c\	-si-	.
2D-/	2F\	4A-/	4f\	.	.
.	.	4B-/	4g\	-mo	.
=12	=12	=12	=12	=12	=12
!	!LO:N:vis=2.	!	!	!	!
2C/	[2G\	[2B-/	2f\	di-	.
8C/	8G\]	8B-/]	8en\	-e	.
8r	8r	8r	8r	.	.
4C/	4c\	4c\	4c\	Re-	.
=13	=13	=13	=13	=13	=13
2.F\	2.A-\	2.c\	2.a-\	-dem-	.
4F\	4A-\	4c\	4a-\	-ptor	.
=14	=14	=14	=14	=14	=14
2E-\	2An\	2c\	2g-X\	nos-	.
2E-\	2A\	2c\	2g-\	-ter	.
!!LO:LB:g=original
=15	=15	=15	=15	=15	=15
4D-\	4B-\	4d-\	2.f\	Do-	.
4C/	4An\	4e-\	.	.	.
2BB-/	4B-\	4d-\	.	.	.
.	4d-\	4B-\	8gn\L	-mi-	.
.	.	.	8f\J	.	.
=16	=16	=16	=16	=16	=16
!	!	!	!	!	!LO:DY:rj:b
2C/	2c\	2G/	2en\	-ne	p
2r	4.c\	2r	2r	.	.
.	8c\	.	.	.	.
*kcancel	*kcancel	*kcancel	*kcancel	*	*
=17||	=17||	=17||	=17||	=17||	=17||
*k[b-]	*k[b-]	*k[b-]	*k[b-]	*	*
!	!	!	!	!	!LO:DY:rj:b
4.F\	2c\	4.A/	4.c\	Re-	ff
8F\	.	8A/	8c\	-qui-	.
4BB-/	(4B-\	4B-/	4e\	-em	.
4D/	4F\)	4B-/	4d\	ae-	.
=18	=18	=18	=18	=18	=18
2F\	4F\	4A/	2c\	-ter-	.
.	4F\	4A/	.	.	.
2F\	4F\	4A/	2c\	-nam	.
.	4F\	4A/	.	.	.
=19	=19	=19	=19	=19	=19
4F\	2.A\	4c\	4.a\	do-	.
4E\	.	4c#X\	.	.	.
.	.	.	8a\	-na	.
4D\	.	2d\	8g\L	e-	.
.	.	.	8f\J	.	.
4BB-/	4B-\	.	8e\L	-i	.
.	.	.	8f\J	.	.
=20	=20	=20	=20	=20	=20
!	!	!	!	!	!LO:DY:rj:b
4.F\	4.A\	4.cn\	4.f\	Do-	p
8F\	8A\	8c\	8c\	-mi-	.
8F\	8A\	8c\	8c\	-ne	.
8r	8r	8r	8r	.	.
4F\	4A\	4c\	8f\L	et	.
.	.	.	8e\J	.	.
!!LO:PB:g=original
=21	=21	=21	=21	=21	=21
2.F#X\	2.A\	2.c\	2.d\	lux	.
4F#\	4A\	8d\L	4d\	per-	.
.	.	8c\J	.	.	.
=22	=22	=22	=22	=22	=22
4.G\	4.B-\	4.B-\	4.d\	-pe-	.
8A\	8c\	8d\	8f#X\	-tu-	.
4G\	4B-\	4e\	4g\	-a	.
4Fn\	8B-\L	4B-\	4d\	et	.
.	8A\J	.	.	.	.
=23	=23	=23	=23	=23	=23
2.E\	2.G\	2.G/	2.c\	lux	.
4E\	4G\	4G/	4c\	per-	.
=24	=24	=24	=24	=24	=24
!	!LO:N:vis=8.	!	!	!	!
4.F\	4.A\	4.A/	4.c\	-pe-	.
(8G\	8B-\	8c\	8e\	-tu-	.
4F\	2A\	2c\	(4f\	-a	.
8E\L)	.	.	4c\)	.	.
8D\J	.	.	.	.	.
=25	=25	=25	=25	=25	=25
4.D\	4F\	4.A/	4.f\	lu-	.
.	8F\	.	.	.	.
8D\	8F\	8A/	8f\	-ce-	.
!	!	!LO:TX:t=P:problem:skreślona nuta	!	!	!
(4D-X\	4F\	2B-/	(4f\	-at	.
4BB-\)	4G\	.	4d\)	.	.
=26	=26	=26	=26	=26	=26
2C/	2G\	2B-/	(2f\	ei	.
4C/	4.c\	4B-/	4e\)	.	.
4r	.	4r	4r	.	.
.	8c\	.	.	.	.
!!LO:LB:g=original
=27	=27	=27	=27	=27	=27
!	!	!	!	!	!LO:DY:rj:b
4F\	2F\	4.A/	4.c\	Re-	p
4F\	.	.	.	.	.
.	.	8A/	8c\	-qui-	.
4BB-/	2F\	4B-/	8c#X\L	-em	.
.	.	.	8d\J	.	.
4D/	.	4B-/	8e\L	ae-	.
.	.	.	8f\J	.	.
=28	=28	=28	=28	=28	=28
4F\	4A\	4A/	2f\	-ter-	.
4F\	4A\	4A/	.	.	.
4F\	4A\	4c\	8c\	-nam	.
.	.	.	8r	.	.
4E\	4G\	4c#X\	4r	.	.
!	!	!	!	!	!LO:DY:b
.	.	.	.	.	f
=29	=29	=29	=29	=29	=29
2D/	2.F\	2.d\	4a\	do-	.
.	.	.	8b-\L	-na	.
.	.	.	8a\J	.	.
2BB-/	.	.	8g\L	e-	.
.	.	.	8f\J	.	.
.	4F\	4d\	8e\L	-i	.
.	.	.	8f\J	.	.
=30	=30	=30	=30	=30	=30
!	!LO:N:vis=4	!	!	!	!
4.F\	4.A\	4.c\	4.f\	Do-	.
8F\	8A\	8c\	8c\	-mi-	.
8F\	8A\	8c\	8c\	-ne	.
8r	8r	8r	8r	.	.
4E-X\	4A\	4c\	4f\	et	.
=31	=31	=31	=31	=31	=31
2.D\	2.B-\	2.B-\	(4f\	lux	.
.	.	.	4d\)	.	.
.	.	.	(4B-\	per-	.
4E-X\	4A\	4c\	4f\)	.	.
=32	=32	=32	=32	=32	=32
4.D\	4.B-\	4.B-\	4.f\	-pe-	.
8D\	8B-\	8B-\	8d\	-tu-	.
8D\	8B-\	8B-\	8B-\	-a	.
8r	8r	8r	8r	.	.
4BB-/	4F\	4B-\	4d\	et	.
!!LO:LB:g=original
=33	=33	=33	=33	=33	=33
2C/	2c\	2A/	2c\	lux	.
2C/	2Bn\	2G#X/	2d\	per-	.
=34	=34	=34	=34	=34	=34
4.C/	4.B-X\	4.Gn/	4.e\	-pe-	.
8C/	8B-\	8G/	8e\	-tu-	.
4F\	2A\	2A/	2f\	-a	.
4D\	.	.	.	.	.
=35	=35	=35	=35	=35	=35
4.BB-/	4.B-\	4.d\	4.g\	lu-	.
!	!LO:N:vis=4	!	!	!	!
8C/	8A\	8d\	8f#X\	-ce-	.
2BB-/	2B-\	2d\	4g\	.	.
.	.	.	8a\L	-at	.
.	.	.	8b-\J	.	.
=36	=36	=36	=36	=36	=36
2C/	2G\	2G/	2e\	e-	.
4C/	4G\	4B-/	4e\	-i	.
4rF;	4r;	4r;	4r;	.	.
=37||	=37||	=37||	=37||	=37||	=37||
*k[b-e-a-d-]	*k[b-e-a-d-]	*k[b-e-a-d-]	*k[b-e-a-d-]	*	*
!	!	!	!	!	!LO:DY:rj:b
2A-\	2A-\	2A-/	2A-/	Re-	p
4G\	4G\	4G/	4G/	.	.
4F\	4F\	4G/	4F/	-qui-	.
=38	=38	=38	=38	=38	=38
2F\	2F\	2A-/	2c\	-e-	.
4F\	4F\	4A-/	4c\	-scat	.
!	!	!	!	!	!LO:DY:rj:b
8F\	8F\	8A-/	8c\	Re-	f
8F\	8F\	8A-/	8c\	-qui-	.
!!LO:PB:g=original
=39	=39	=39	=39	=39	=39
2BB-/	2F\	2B-\	2d-\	-e-	.
4BB-/	4F\	4B-\	4d-\	-scat	.
4BB-/	4F\	4B-\	4d-\	in	.
=40	=40	=40	=40	=40	=40
!	!	!	!	!	!LO:DY:rj:b
2FF/	2F\	2A-/	2f\	pa-	p
4FF/	4F\	4A-/	4c\	-ce	.
4r	4r	4r	4r	.	.
=41	=41	=41	=41	=41	=41
2D-/	2.F\	2G/	2B-\	Re-	.
4C/	.	4A-/	4c\	.	.
4BB-/	4F\	4B-/	4d-\	-qui-	.
=42	=42	=42	=42	=42	=42
2C/	1F	2A-/	(2c\	-e-	.
2D-/	.	2F/	2A-\)	.	.
=43	=43	=43	=43	=43	=43
2BB-/	2D-\	2F/	2.G/	-scat	.
2C/	4C\	4En/	.	.	.
.	4En\	4G/	4c/	in	.
=44	=44	=44	=44	=44	=44
2C/	2En\	2G/	2B-/	pa-	.
4FF/	4F\	4F/	4A-/	-ce	.
4r	4r	4r	4r	.	.
=45	=45	=45	=45	=45	=45
2FF/	1F	2A-/	4c\	A-	.
.	.	.	4f\	.	.
2BB-/	.	2B-/	4e-\	.	.
.	.	.	4d-\	-[[men]]-	.
!!LO:LB:g=original
=46	=46	=46	=46	=46	=46
4FF/	8F\	8A-/	4c\	-men	.
.	8r	8r	.	.	.
4r	4A-\	4c/	4r	.	.
2r	4G\	4B-/	2r	.	.
.	4F\	4A-/	.	.	.
=47	=47	=47	=47	=47	=47
1C	4F\	1G	1c	A-	.
.	4En\	.	.	.	.
.	4Dn\	.	.	.	.
.	4E\	.	.	.	.
=48	=48	=48	=48	=48	=48
2FF;/	2F;\	2An;/	2c;\	-men	.
2r	2r	2r	2r	.	.
==	==	==	==	==	==
*-	*-	*-	*-	*-	*-
!!!system-decoration: <s1,s2,s3,s4>
!!!ENC: Anastazja Marusiak
!!!END: 2021-05-25
!!!ENC: Andrzej Kubiczek
!!!END: 2021-06-06
